ui_kit/lib/assets/icons/audio_mode.svg

<svg width="16" height="17" viewBox="0 0 16 17" fill="none" xmlns="http://www.w3.org/2000/svg">
<path fill-rule="evenodd" clip-rule="evenodd" d="M14.0752 0.474933C14.2713 0.42023 14.4773 0.4116 14.6772 0.449718C14.8771 0.487835 15.0655 0.571668 15.2277 0.694665C15.3898 0.817661 15.5213 0.976488 15.6119 1.15873C15.7025 1.34098 15.7497 1.5417 15.7499 1.74522L15.7499 5.27473C15.7503 5.28773 15.7503 5.30068 15.7499 5.31359L15.75 11.4701C15.75 12.215 15.4541 12.9295 14.9273 13.4562C14.4006 13.983 13.6861 14.2789 12.9412 14.2789C12.1962 14.2789 11.4818 13.983 10.955 13.4562C10.4283 12.9295 10.1324 12.215 10.1324 11.4701C10.1324 10.7252 10.4283 10.0107 10.955 9.48396C11.4818 8.95721 12.1962 8.66128 12.9412 8.66128C13.4014 8.66128 13.8501 8.77425 14.25 8.98483L14.2499 6.2542L5.86094 8.35145V13.7465C5.8654 13.8109 5.86765 13.8757 5.86765 13.9406C5.86765 14.6856 5.57172 15.4 5.04496 15.9267C4.51821 16.4535 3.80377 16.7494 3.05882 16.7494C2.31388 16.7494 1.59944 16.4535 1.07269 15.9267C0.545929 15.4 0.25 14.6856 0.25 13.9406C0.25 13.1957 0.545929 12.4812 1.07269 11.9545C1.59944 11.4277 2.31388 11.1318 3.05882 11.1318C3.51653 11.1318 3.96272 11.2435 4.36094 11.4518V4.26628C4.36203 3.97837 4.45711 3.69869 4.63172 3.46978C4.80546 3.242 5.04849 3.07687 5.32416 2.99922L14.0752 0.474933ZM4.36094 13.8082C4.33061 13.5097 4.19836 13.2292 3.9843 13.0151C3.73885 12.7697 3.40595 12.6318 3.05882 12.6318C2.7117 12.6318 2.3788 12.7697 2.13335 13.0151C1.88789 13.2606 1.75 13.5935 1.75 13.9406C1.75 14.2877 1.88789 14.6206 2.13335 14.8661C2.3788 15.1115 2.7117 15.2494 3.05882 15.2494C3.40595 15.2494 3.73885 15.1115 3.9843 14.8661C4.21077 14.6396 4.34567 14.3387 4.36519 14.0209C4.36238 13.9945 4.36094 13.9677 4.36094 13.9406V13.8082ZM5.86094 6.80529L14.2499 4.70804L14.2499 1.98568L5.86094 4.40554V6.80529ZM12.9412 10.1613C12.5941 10.1613 12.2612 10.2992 12.0157 10.5446C11.7703 10.7901 11.6324 11.123 11.6324 11.4701C11.6324 11.8172 11.7703 12.1501 12.0157 12.3956C12.2612 12.641 12.5941 12.7789 12.9412 12.7789C13.2883 12.7789 13.6212 12.641 13.8667 12.3956C14.1121 12.1501 14.25 11.8172 14.25 11.4701C14.25 11.123 14.1121 10.7901 13.8667 10.5446C13.6212 10.2992 13.2883 10.1613 12.9412 10.1613Z" fill="white"/>
</svg>

<svg xmlns="http://www.w3.org/2000/svg" width="16" height="17" fill="none" viewBox="0 0 16 17"><path fill="#fff" fill-rule="evenodd" d="M14.075.475a1.32 1.32 0 0 1 1.675 1.27v3.53a.63.63 0 0 1 0 .039v6.156a2.809 2.809 0 1 1-1.5-2.485v-2.73L5.86 8.35v5.395a2.81 2.81 0 0 1-2.8 3.005 2.809 2.809 0 1 1 1.302-5.297V4.266A1.322 1.322 0 0 1 5.324 3L14.075.475ZM4.361 13.808a1.309 1.309 0 1 0 .004.213.759.759 0 0 1-.004-.08v-.133Zm1.5-7.003 8.389-2.097V1.986l-8.39 2.42v2.4Zm7.08 3.356a1.31 1.31 0 1 0 0 2.619 1.31 1.31 0 0 0 0-2.619Z" clip-rule="evenodd"/></svg>
